svg/fluentui-system-icons/ic_fluent_tab_add_20_filled.svg

<svg width="20" height="20" viewBox="0 0 20 20" fill="none" xmlns="http://www.w3.org/2000/svg">
<path d="M3 5.5C3 4.11929 4.11929 3 5.5 3H14.5C15.8807 3 17 4.11929 17 5.5V9.59971C16.5345 9.36173 16.0306 9.18814 15.5 9.09069V5.5C15.5 4.94772 15.0523 4.5 14.5 4.5H5.5C4.94772 4.5 4.5 4.94772 4.5 5.5V14.5C4.5 15.0523 4.94772 15.5 5.5 15.5H9.09069C9.18814 16.0306 9.36173 16.5345 9.59971 17H5.5C4.11929 17 3 15.8807 3 14.5V5.5ZM19 14.5C19 16.9853 16.9853 19 14.5 19C12.0147 19 10 16.9853 10 14.5C10 12.0147 12.0147 10 14.5 10C16.9853 10 19 12.0147 19 14.5ZM15 12.5C15 12.2239 14.7761 12 14.5 12C14.2239 12 14 12.2239 14 12.5V14H12.5C12.2239 14 12 14.2239 12 14.5C12 14.7761 12.2239 15 12.5 15H14V16.5C14 16.7761 14.2239 17 14.5 17C14.7761 17 15 16.7761 15 16.5V15H16.5C16.7761 15 17 14.7761 17 14.5C17 14.2239 16.7761 14 16.5 14H15V12.5Z" fill="#212121"/>
</svg>

<svg xmlns="http://www.w3.org/2000/svg" width="20" height="20"><path d="M3 5.5A2.5 2.5 0 0 1 5.5 3h9A2.5 2.5 0 0 1 17 5.5v4.1a5.46 5.46 0 0 0-1.5-.51V5.5a1 1 0 0 0-1-1h-9a1 1 0 0 0-1 1v9a1 1 0 0 0 1 1h3.59A5.46 5.46 0 0 0 9.6 17H5.5A2.5 2.5 0 0 1 3 14.5v-9Zm16 9a4.5 4.5 0 1 1-9 0 4.5 4.5 0 0 1 9 0Zm-4-2a.5.5 0 0 0-1 0V14h-1.5a.5.5 0 0 0 0 1H14v1.5a.5.5 0 0 0 1 0V15h1.5a.5.5 0 0 0 0-1H15v-1.5Z"/></svg>
